client/public/static/images/use-case-litigation.svg

<svg fill="none" height="65" viewBox="0 0 67 65" width="67" xmlns="http://www.w3.org/2000/svg" xmlns:xlink="http://www.w3.org/1999/xlink"><mask id="a" fill="#fff"><path d="m60.7534 52.9958c0 6.0729-4.923 10.9959-10.9958 10.9959-6.0729 0-10.9959-4.923-10.9959-10.9959 0-6.0728 4.923-10.9958 10.9959-10.9958 6.0728 0 10.9958 4.923 10.9958 10.9958zm-20.5931 0c0 5.3005 4.2968 9.5973 9.5973 9.5973 5.3004 0 9.5972-4.2968 9.5972-9.5973 0-5.3004-4.2968-9.5973-9.5972-9.5973-5.3005 0-9.5973 4.2969-9.5973 9.5973z" fill="#fff"/></mask><rect height="55.5" rx="4.25" stroke="#a0aec0" stroke-width="1.5" width="46.5" x="9.75" y="6.75"/><path d="m51.0901 58h-36.1802c-.2413-.0003-.4725-.1023-.6431-.2835-.1706-.1813-.2665-.427-.2668-.6833v-46.0664c.0003-.2563.0962-.5021.2668-.6833.1706-.1813.4018-.2832.6431-.2835h36.1802c.2413.0003.4725.1023.6431.2835.1706.1813.2665.427.2668.6833v46.0664c-.0003.2563-.0962.502-.2668.6833-.1706.1812-.4018.2832-.6431.2835z" fill="#edf2f7"/><g fill="#a0aec0"><path d="m43.0301 20h-23.058c-.1276.0001-.254-.0256-.3719-.0758s-.2251-.1238-.3154-.2167-.1619-.2032-.2108-.3246c-.0488-.1214-.074-.2515-.074-.3829s.0252-.2615.074-.3829c.0489-.1214.1205-.2317.2108-.3246s.1975-.1665.3154-.2167.2443-.0759.3719-.0758h23.058c.2573.0003.504.1058.6859.2933.1818.1875.284.4417.284.7067s-.1022.5192-.284.7067c-.1819.1875-.4286.293-.6859.2933z"/><path d="m43.0301 32h-23.058c-.1276.0001-.254-.0256-.3719-.0758s-.2251-.1238-.3154-.2167-.1619-.2032-.2108-.3246c-.0488-.1214-.074-.2515-.074-.3829s.0252-.2615.074-.3829c.0489-.1214.1205-.2317.2108-.3246s.1975-.1665.3154-.2167.2443-.0759.3719-.0758h23.058c.2573.0003.504.1058.6859.2933.1818.1875.284.4417.284.7067s-.1022.5192-.284.7067c-.1819.1875-.4286.293-.6859.2933z"/><path d="m47.0292 26h-27.0573c-.1276.0001-.2539-.0256-.3718-.0758-.118-.0502-.2251-.1238-.3154-.2167-.0902-.0929-.1618-.2032-.2107-.3246s-.074-.2515-.074-.3829.0251-.2615.074-.3829.1205-.2317.2107-.3246c.0903-.0929.1974-.1665.3154-.2167.1179-.0502.2442-.0759.3718-.0758h27.0573c.2575 0 .5044.1054.6865.2929.182.1875.2843.4419.2843.7071s-.1023.5196-.2843.7071c-.1821.1875-.429.2929-.6865.2929z"/></g><path d="m42.1089 11h-18.2178c-.2363-.0003-.4628-.1075-.6298-.298-.1671-.1904-.261-.4487-.2613-.71813v-4.96774c.0003-.2694.0942-.52768.2613-.71818.167-.19049.3935-.29765.6298-.29795h18.2178c.2363.0003.4628.10746.6298.29795.1671.1905.261.44878.2613.71818v4.96774c-.0003.26943-.0942.52773-.2613.71813-.167.1905-.3935.2977-.6298.298z" fill="#2d3748"/><ellipse cx="49.1591" cy="52.9574" fill="#6059f7" rx="10.3807" ry="9.80398"/><path d="m60.7534 52.9958c0 6.0729-4.923 10.9959-10.9958 10.9959-6.0729 0-10.9959-4.923-10.9959-10.9959 0-6.0728 4.923-10.9958 10.9959-10.9958 6.0728 0 10.9958 4.923 10.9958 10.9958zm-20.5931 0c0 5.3005 4.2968 9.5973 9.5973 9.5973 5.3004 0 9.5972-4.2968 9.5972-9.5973 0-5.3004-4.2968-9.5973-9.5972-9.5973-5.3005 0-9.5973 4.2969-9.5973 9.5973z" fill="#6059f7" mask="url(#a)" stroke="#fff" stroke-width="2.30682"/><path d="m49.4001 46.0097 1.1496 8.0322 3.9712 2.6151" fill="#6059f7"/><path d="m49.4001 46.0097 1.1496 8.0322 3.9712 2.6151" stroke="#fff" stroke-linecap="round" stroke-linejoin="round" stroke-width="1.28889"/><path d="m33.0248 5.04953c1.1182 0 2.0247-.90652 2.0247-2.02477 0-1.11824-.9065-2.02476-2.0247-2.02476-1.1183 0-2.0248.90652-2.0248 2.02476 0 1.11825.9065 2.02477 2.0248 2.02477z" fill="#2d3748"/><path d="m33 4c.5523 0 1-.44772 1-1s-.4477-1-1-1-1 .44772-1 1 .4477 1 1 1z" fill="#fff"/></svg>

<svg width="67" height="65" viewBox="0 0 67 65" fill="none" xmlns="http://www.w3.org/2000/svg">
<rect x="9.75" y="6.75" width="46.5" height="55.5" rx="4.25" stroke="#A0AEC0" stroke-width="1.5"/>
<path d="M51.0901 58H14.9099C14.6686 57.9997 14.4374 57.8977 14.2668 57.7165C14.0962 57.5352 14.0003 57.2895 14 57.0332V10.9668C14.0003 10.7105 14.0962 10.4647 14.2668 10.2835C14.4374 10.1022 14.6686 10.0003 14.9099 10H51.0901C51.3314 10.0003 51.5626 10.1023 51.7332 10.2835C51.9038 10.4648 51.9997 10.7105 52 10.9668V57.0332C51.9997 57.2895 51.9038 57.5352 51.7332 57.7165C51.5626 57.8977 51.3314 57.9997 51.0901 58Z" fill="#EDF2F7"/>
<path d="M43.0301 20H19.9721C19.8445 20.0001 19.7181 19.9744 19.6002 19.9242C19.4823 19.874 19.3751 19.8004 19.2848 19.7075C19.1945 19.6146 19.1229 19.5043 19.074 19.3829C19.0252 19.2615 19 19.1314 19 19C19 18.8686 19.0252 18.7385 19.074 18.6171C19.1229 18.4957 19.1945 18.3854 19.2848 18.2925C19.3751 18.1996 19.4823 18.126 19.6002 18.0758C19.7181 18.0256 19.8445 17.9999 19.9721 18H43.0301C43.2874 18.0003 43.5341 18.1058 43.716 18.2933C43.8978 18.4808 44 18.735 44 19C44 19.265 43.8978 19.5192 43.716 19.7067C43.5341 19.8942 43.2874 19.9997 43.0301 20Z" fill="#A0AEC0"/>
<path d="M43.0301 32H19.9721C19.8445 32.0001 19.7181 31.9744 19.6002 31.9242C19.4823 31.874 19.3751 31.8004 19.2848 31.7075C19.1945 31.6146 19.1229 31.5043 19.074 31.3829C19.0252 31.2615 19 31.1314 19 31C19 30.8686 19.0252 30.7385 19.074 30.6171C19.1229 30.4957 19.1945 30.3854 19.2848 30.2925C19.3751 30.1996 19.4823 30.126 19.6002 30.0758C19.7181 30.0256 19.8445 29.9999 19.9721 30H43.0301C43.2874 30.0003 43.5341 30.1058 43.716 30.2933C43.8978 30.4808 44 30.735 44 31C44 31.265 43.8978 31.5192 43.716 31.7067C43.5341 31.8942 43.2874 31.9997 43.0301 32Z" fill="#A0AEC0"/>
<path d="M47.0292 26H19.9719C19.8443 26.0001 19.718 25.9744 19.6001 25.9242C19.4821 25.874 19.375 25.8004 19.2847 25.7075C19.1945 25.6146 19.1229 25.5043 19.074 25.3829C19.0251 25.2615 19 25.1314 19 25C19 24.8686 19.0251 24.7385 19.074 24.6171C19.1229 24.4957 19.1945 24.3854 19.2847 24.2925C19.375 24.1996 19.4821 24.126 19.6001 24.0758C19.718 24.0256 19.8443 23.9999 19.9719 24H47.0292C47.2867 24 47.5336 24.1054 47.7157 24.2929C47.8977 24.4804 48 24.7348 48 25C48 25.2652 47.8977 25.5196 47.7157 25.7071C47.5336 25.8946 47.2867 26 47.0292 26Z" fill="#A0AEC0"/>
<path d="M42.1089 11H23.8911C23.6548 10.9997 23.4283 10.8925 23.2613 10.702C23.0942 10.5116 23.0003 10.2533 23 9.98387V5.01613C23.0003 4.74673 23.0942 4.48845 23.2613 4.29795C23.4283 4.10746 23.6548 4.0003 23.8911 4H42.1089C42.3452 4.0003 42.5717 4.10746 42.7387 4.29795C42.9058 4.48845 42.9997 4.74673 43 5.01613V9.98387C42.9997 10.2533 42.9058 10.5116 42.7387 10.702C42.5717 10.8925 42.3452 10.9997 42.1089 11Z" fill="#2D3748"/>
<ellipse cx="49.1591" cy="52.9574" rx="10.3807" ry="9.80398" fill="#6059F7"/>
<mask id="path-8-inside-1" fill="white">
<path d="M60.7534 52.9958C60.7534 59.0687 55.8304 63.9917 49.7576 63.9917C43.6847 63.9917 38.7617 59.0687 38.7617 52.9958C38.7617 46.923 43.6847 42 49.7576 42C55.8304 42 60.7534 46.923 60.7534 52.9958ZM40.1603 52.9958C40.1603 58.2963 44.4571 62.5931 49.7576 62.5931C55.058 62.5931 59.3548 58.2963 59.3548 52.9958C59.3548 47.6954 55.058 43.3985 49.7576 43.3985C44.4571 43.3985 40.1603 47.6954 40.1603 52.9958Z"/>
</mask>
<path d="M60.7534 52.9958C60.7534 59.0687 55.8304 63.9917 49.7576 63.9917C43.6847 63.9917 38.7617 59.0687 38.7617 52.9958C38.7617 46.923 43.6847 42 49.7576 42C55.8304 42 60.7534 46.923 60.7534 52.9958ZM40.1603 52.9958C40.1603 58.2963 44.4571 62.5931 49.7576 62.5931C55.058 62.5931 59.3548 58.2963 59.3548 52.9958C59.3548 47.6954 55.058 43.3985 49.7576 43.3985C44.4571 43.3985 40.1603 47.6954 40.1603 52.9958Z" fill="#6059F7" stroke="white" stroke-width="2.30682" mask="url(#path-8-inside-1)"/>
<path d="M49.4001 46.0097L50.5497 54.0419L54.5209 56.657" fill="#6059F7"/>
<path d="M49.4001 46.0097L50.5497 54.0419L54.5209 56.657" stroke="white" stroke-width="1.28889" stroke-linecap="round" stroke-linejoin="round"/>
<path d="M33.0248 5.04953C34.143 5.04953 35.0495 4.14301 35.0495 3.02476C35.0495 1.90652 34.143 1 33.0248 1C31.9065 1 31 1.90652 31 3.02476C31 4.14301 31.9065 5.04953 33.0248 5.04953Z" fill="#2D3748"/>
<path d="M33 4C33.5523 4 34 3.55228 34 3C34 2.44772 33.5523 2 33 2C32.4477 2 32 2.44772 32 3C32 3.55228 32.4477 4 33 4Z" fill="white"/>
</svg>
